X: 3952
T: Blackbird, The
R: hornpipe
M: 4/4
K: Dmixolydian
|:AG|FEFA GF D2|defe dcAF|G2 GF GFDE|FGAF GBAG|
FEFA GF D2|defe dcAG|AdcA GcAG|F2 D2 D2:|
K:Dmaj
|:fg|agfd gfec|dcde fd A2|agfa gfde|fdgf e2 fg|
af (3gfe fdec|dcde fdAG|Ad=cA G=cAG|F2 D2 D2:|

